X:80
T:Off to California
S:as played by Alan Ng
N:Transcribed by Alan Ng without ornaments and triplets
Z:id:ng-other-16 Transcribed by Alan Ng alanng1@email.com Mar 1, 2001
R:Hornpipe
M:2/2
K:GMaj
E:11
D2|GFGB AGED|GBdg e2ef|gfgd edBG|ABAG E2 D2|GFGB AGED|GBdg e2ef|gfgd edBG|(3ABA GF G2::e|\
gfeg fedf|edef edB2 |gfgd edBG|ABAG E2 D2|GFGB AGED|GBdg e2ef|gfgd edBG|(3ABA GF G3:|**
